Dominus_Dark_Funeral/scalable/apps/gnome-panel-workspace-switcher.svg

<svg xmlns="http://www.w3.org/2000/svg" viewBox="0 0 48 48"><defs><linearGradient id="a" x1="23.71" x2="23.71" y1="47.8" y2="-2.8" gradientUnits="userSpaceOnUse"><stop stop-color="#916f6f" offset="0"/><stop stop-color="#c8b7b7" offset=".93"/><stop stop-color="red" stop-opacity=".82" offset="1"/></linearGradient><radialGradient id="c" cx="14.08" cy="9.92" r="6.35" gradientTransform="matrix(1.442 .00727 -.00771 1.5073 -5.39 -4.28)" gradientUnits="userSpaceOnUse"><stop stop-color="#002581" stop-opacity=".69" offset="0"/><stop stop-opacity=".86" offset="1"/></radialGradient><linearGradient id="b" x1="12.77" x2="45.09" y1="8.62" y2="39.77" gradientUnits="userSpaceOnUse"><stop stop-color="#000200" offset="0"/><stop stop-color="#000200" stop-opacity="0" offset="1"/></linearGradient></defs><path fill="url(#a)" d="M23.71.5C17.88.5 13.2 1.6 9.78 3.82 5.68 6.48 3.5 10.73 3.5 16.1c0 7.22 5.8 16.88 7.58 19.67a54.47 54.47 0 0 0 6.25 8.16c2.54 2.64 4.57 3.87 6.37 3.87 1.8 0 3.83-1.23 6.37-3.87 2-2.08 4.22-4.98 6.25-8.16 1.78-2.79 7.59-12.45 7.59-19.67 0-5.37-2.17-9.62-6.27-12.27C34.23 1.6 29.55.49 23.7.49z"/><path opacity=".6" fill="url(#b)" d="M27.27 46.3c.88-.61 1.78-1.3 2.81-2.37 2-2.08 4.22-4.97 6.25-8.16.89-1.4 2.79-4.5 4.46-8.17.84-1.83 1.62-3.8 2.19-5.77.57-1.97.94-3.93.94-5.73 0-.58-.13-1.1-.18-1.64L36.7 7.4 11.9 30.52z"/><path opacity=".3" d="M23.71.5C17.88.5 13.2 1.6 9.78 3.82 5.68 6.48 3.5 10.73 3.5 16.1c0 7.22 5.8 16.88 7.58 19.67a54.47 54.47 0 0 0 6.25 8.16c2.54 2.64 4.57 3.87 6.37 3.87 1.8 0 3.83-1.23 6.37-3.87 2-2.08 4.22-4.98 6.25-8.16 1.78-2.79 7.59-12.45 7.59-19.67 0-5.37-2.17-9.62-6.27-12.27C34.23 1.6 29.55.49 23.7.49zm.1 1.03c5.59 0 10.08 1.08 13.35 3.2 3.93 2.54 6 6.6 6 11.75 0 6.92-5.56 16.17-7.26 18.84a52.16 52.16 0 0 1-5.99 7.81c-2.43 2.53-4.37 3.71-6.1 3.71-1.73 0-3.67-1.18-6.1-3.7a52.16 52.16 0 0 1-5.98-7.82c-1.7-2.67-7.27-11.92-7.27-18.84 0-5.14 2.08-9.21 6-11.76 3.28-2.11 7.77-3.19 13.35-3.19z"/><path fill-opacity=".97" fill="#fff" d="M11.88 7.41h24.24v23.11H11.88z"/><path fill="url(#c)" d="M11.88 7.98h11.86v11.01H11.88z"/><path fill-opacity=".97" fill="gray" d="M11.47 30.54V7.39h.57v23.15z"/><path style="text-decoration-line:none;text-indent:0;text-transform:none" fill-opacity=".98" fill="gray" color="#000" d="M12.01 18.96h11.71V7.4h.44v11.56H36.1v.42H24.16V30.5h-.44V19.38H12.02z"/><path fill-opacity=".97" fill="#333" d="M12.02 29.98h24.23v.57H12.02z"/><path fill-opacity=".97" fill="gray" d="M11.88 7.41h24.81v.57H11.88z"/><path fill-opacity=".97" fill="#333" d="M36.7 7.98v22.57h-.57V7.98z"/></svg>

<?xml version="1.0" encoding="UTF-8" standalone="no"?>
<svg
   xmlns:dc="http://purl.org/dc/elements/1.1/"
   xmlns:cc="http://creativecommons.org/ns#"
   xmlns:rdf="http://www.w3.org/1999/02/22-rdf-syntax-ns#"
   xmlns:svg="http://www.w3.org/2000/svg"
   xmlns="http://www.w3.org/2000/svg"
   xmlns:sodipodi="http://sodipodi.sourceforge.net/DTD/sodipodi-0.dtd"
   xmlns:inkscape="http://www.inkscape.org/namespaces/inkscape"
   viewBox="0 0 48 48"
   version="1.1"
   id="svg41"
   sodipodi:docname="gnome-panel-workspace-switcher.svg"
   inkscape:version="0.92.4 (5da689c313, 2019-01-14)">
  <metadata
     id="metadata45">
    <rdf:RDF>
      <cc:Work
         rdf:about="">
        <dc:format>image/svg+xml</dc:format>
        <dc:type
           rdf:resource="http://purl.org/dc/dcmitype/StillImage" />
        <dc:title></dc:title>
      </cc:Work>
    </rdf:RDF>
  </metadata>
  <sodipodi:namedview
     pagecolor="#ffffff"
     bordercolor="#666666"
     borderopacity="1"
     objecttolerance="10"
     gridtolerance="10"
     guidetolerance="10"
     inkscape:pageopacity="0"
     inkscape:pageshadow="2"
     inkscape:window-width="1112"
     inkscape:window-height="480"
     id="namedview43"
     showgrid="false"
     inkscape:zoom="4.9166667"
     inkscape:cx="2.1355932"
     inkscape:cy="24"
     inkscape:window-x="0"
     inkscape:window-y="25"
     inkscape:window-maximized="0"
     inkscape:current-layer="svg41" />
  <defs
     id="defs19">
    <linearGradient
       id="a"
       x1="23.71"
       x2="23.71"
       y1="47.8"
       y2="-2.8"
       gradientUnits="userSpaceOnUse">
      <stop
         stop-color="#916f6f"
         offset="0"
         id="stop2" />
      <stop
         stop-color="#c8b7b7"
         offset=".93"
         id="stop4" />
      <stop
         stop-color="red"
         stop-opacity=".82"
         offset="1"
         id="stop6" />
    </linearGradient>
    <radialGradient
       id="c"
       cx="14.08"
       cy="9.92"
       r="6.35"
       gradientTransform="matrix(1.442,0.00727,-0.00771,1.5073,-5.39,-4.28)"
       gradientUnits="userSpaceOnUse">
      <stop
         stop-color="#002581"
         stop-opacity=".69"
         offset="0"
         id="stop9" />
      <stop
         stop-opacity=".86"
         offset="1"
         id="stop11" />
    </radialGradient>
    <linearGradient
       id="b"
       x1="12.77"
       x2="45.09"
       y1="8.62"
       y2="39.77"
       gradientUnits="userSpaceOnUse">
      <stop
         stop-color="#000200"
         offset="0"
         id="stop14" />
      <stop
         stop-color="#000200"
         stop-opacity="0"
         offset="1"
         id="stop16" />
    </linearGradient>
  </defs>
  <path
     d="M 23.71,0.5 C 17.88,0.5 13.2,1.6 9.78,3.82 5.68,6.48 3.5,10.73 3.5,16.1 c 0,7.22 5.8,16.88 7.58,19.67 a 54.47,54.47 0 0 0 6.25,8.16 c 2.54,2.64 4.57,3.87 6.37,3.87 1.8,0 3.83,-1.23 6.37,-3.87 2,-2.08 4.22,-4.98 6.25,-8.16 C 38.1,32.98 43.91,23.32 43.91,16.1 43.91,10.73 41.74,6.48 37.64,3.83 34.23,1.6 29.55,0.49 23.7,0.49 Z"
     id="path21"
     style="fill:url(#a)"
     inkscape:connector-curvature="0" />
  <path
     d="m 27.27,46.3 c 0.88,-0.61 1.78,-1.3 2.81,-2.37 2,-2.08 4.22,-4.97 6.25,-8.16 0.89,-1.4 2.79,-4.5 4.46,-8.17 0.84,-1.83 1.62,-3.8 2.19,-5.77 0.57,-1.97 0.94,-3.93 0.94,-5.73 0,-0.58 -0.13,-1.1 -0.18,-1.64 L 36.7,7.4 11.9,30.52 Z"
     id="path23"
     style="opacity:0.6;fill:url(#b)"
     inkscape:connector-curvature="0" />
  <path
     d="M 23.71,0.5 C 17.88,0.5 13.2,1.6 9.78,3.82 5.68,6.48 3.5,10.73 3.5,16.1 c 0,7.22 5.8,16.88 7.58,19.67 a 54.47,54.47 0 0 0 6.25,8.16 c 2.54,2.64 4.57,3.87 6.37,3.87 1.8,0 3.83,-1.23 6.37,-3.87 2,-2.08 4.22,-4.98 6.25,-8.16 C 38.1,32.98 43.91,23.32 43.91,16.1 43.91,10.73 41.74,6.48 37.64,3.83 34.23,1.6 29.55,0.49 23.7,0.49 Z m 0.1,1.03 c 5.59,0 10.08,1.08 13.35,3.2 3.93,2.54 6,6.6 6,11.75 0,6.92 -5.56,16.17 -7.26,18.84 a 52.16,52.16 0 0 1 -5.99,7.81 c -2.43,2.53 -4.37,3.71 -6.1,3.71 -1.73,0 -3.67,-1.18 -6.1,-3.7 A 52.16,52.16 0 0 1 11.73,35.32 C 10.03,32.65 4.46,23.4 4.46,16.48 c 0,-5.14 2.08,-9.21 6,-11.76 3.28,-2.11 7.77,-3.19 13.35,-3.19 z"
     id="path25"
     inkscape:connector-curvature="0"
     style="opacity:0.3" />
  <path
     d="M 11.88,7.41 H 36.12 V 30.52 H 11.88 Z"
     id="path27"
     inkscape:connector-curvature="0"
     style="fill:#ffffff;fill-opacity:0.97000002" />
  <path
     d="M 11.88,7.98 H 23.74 V 18.99 H 11.88 Z"
     id="path29"
     style="fill:url(#c)"
     inkscape:connector-curvature="0" />
  <path
     d="M 11.47,30.54 V 7.39 h 0.57 v 23.15 z"
     id="path31"
     inkscape:connector-curvature="0"
     style="fill:#808080;fill-opacity:0.97000002" />
  <path
     style="color:#000000;text-indent:0;text-decoration:none;text-decoration-line:none;text-transform:none;fill:#808080;fill-opacity:0.98000004"
     d="M 12.01,18.96 H 23.72 V 7.4 h 0.44 V 18.96 H 36.1 v 0.42 H 24.16 V 30.5 H 23.72 V 19.38 h -11.7 z"
     id="path33"
     inkscape:connector-curvature="0" />
  <path
     d="m 12.02,29.98 h 24.23 v 0.57 H 12.02 Z"
     id="path35"
     inkscape:connector-curvature="0"
     style="fill:#333333;fill-opacity:0.97000002" />
  <path
     d="M 11.88,7.41 H 36.69 V 7.98 H 11.88 Z"
     id="path37"
     inkscape:connector-curvature="0"
     style="fill:#808080;fill-opacity:0.97000002" />
  <path
     d="M 36.7,7.98 V 30.55 H 36.13 V 7.98 Z"
     id="path39"
     inkscape:connector-curvature="0"
     style="fill:#333333;fill-opacity:0.97000002" />
</svg>
